!!!COM: Scriabin, Alexander
!!!OTL@@FR: Prélude en ré mineur
!!!OTL@@EN: Prelude in D Minor
!!!OPR@@FR: 24 Préludes
!!!OPR@@EN: 24 Preludes
!!!OPS: 11
!!!ONM: 24
!!!OMD: Presto [quarter]=100
!!!ODT: 1895
!!!AGN: Prelude
**kern	**kern	**dynam
*staff2	*staff1	*staff1/2
*Ipiano	*Ipiano	*
*clefF4	*clefG2	*
*k[b-]	*k[b-]	*
*d:	*d:	*
*M6/8	*M6/8	*
4AAA 4AA	4r	.
=1	=1	=1
8.EL	8dL 8g 8a	p
.	8d 8g 8a	.
8.AAJ	.	.
.	8dJ 8g 8a	.
8.AL	8dL 8g 8a	.
.	8d 8g 8a	.
8.EJ	.	.
.	8gJ 8a 8dd	.
=2	=2	=2
*M5/8	*M5/8	*
8.eL	8gL 8a 8dd	.
.	8d 8g 8a	.
8.AJ	.	.
.	8gJ 8a 8dd	.
8EL	8gL 8a 8dd	.
8AAAJ 8AA	8dJ 8g 8a	.
=3	=3	=3
*M6/8	*M6/8	*
8.GL	8c#XL 8f 8a	.
.	8c# 8f 8a	.
8.AAJ	.	.
.	8c#J 8f 8a	.
8.AL	8c#L 8f 8a	.
.	8c# 8f 8a	.
8.GJ	.	.
.	8fJ 8a 8cc#X	.
=4	=4	=4
*M5/8	*M5/8	*
8.aL	8fL 8cc#X	.
.	8c#X 8f 8a	.
8.AJ	.	.
.	8fJ 8a 8cc#	.
8GL	8fL 8a 8cc#	.
8DDDJ 8DD	8c#J 8f 8a	.
!!LO:LB:g=original
=5	=5	=5
*M6/8	*M6/8	*
8.FL	8dL 8f 8a	.
.	8d 8f 8a	.
8.AAJ	.	.
.	8dJ 8f 8a	.
8.AL	8dL 8f 8a	.
.	8d 8f 8a	.
8.FJ	.	.
.	8fJ 8a 8dd	.
=6	=6	=6
*M5/8	*M5/8	*
8.aL	8fL 8dd	.
.	8d 8f 8a	.
8.AJ	.	.
.	8fJ 8a 8dd	.
8FL	8f 8a 8dd	.
8BB-J	8r	.
=7	=7	=7
*M6/8	*M6/8	*
8BB-L	4.B- 4.d 4.f	.
8FF 8F	.	.
8AAJ	.	.
8EEL 8E	8.AL 8.c#X 8.g 8.a	.
8GG	.	.
.	8.B-J 8.d 8.g 8.b-	.
8DDJ 8D	.	.
=8	=8	=8
8FFL	4.cn 4.f 4.a 4.ccn	>
8CC 8C	.	.
8EEJ	.	.
8AAAL 8AA	8c#XL 8g 8a 8cc#X	f
8DDDJ 8DD	8dJ 8f 8a 8dd	.
8GGG 8GG	8r	.
!!LO:LB:g=original
=9	=9	=9
8.B-L	8fL 8b- 8dd	p
.	8f 8b- 8dd	.
8.DJ	.	.
.	8fJ 8b- 8dd	.
8.dL	8fL 8b- 8dd	.
.	8f 8b- 8dd	.
8.B-J	.	.
.	8b-J 8dd 8ff	.
=10	=10	=10
*M5/8	*M5/8	*
8.gL	8b-L 8dd 8ff	.
.	8f 8b- 8dd	.
8.B-J	.	.
.	8b-J 8dd 8ff	.
8DL	8b-L 8dd 8ff	.
8CCJ 8C	8fJ 8b- 8dd	.
=11	=11	=11
*M6/8	*M6/8	*
8.B-L	8fL 8b- 8cc	<
.	8f 8b- 8cc	.
8.CJ	.	.
.	8fJ 8b- 8cc	.
8.cL	8eL 8b- 8cc	.
.	8e 8a 8cc	.
8.B-J	.	.
.	8g#XJ 8cc 8ee	<
=12	=12	=12
*M5/8	*M5/8	*
8.ccL	8g#XL 8ee	[
.	8e 8g# 8cc	>
8.cJ	.	)
.	8g#J 8cc 8ee	)
8B-L	8g#L 8cc 8ee	]
8FFFJ 8FF	8eJ 8g# 8cc	.
!!LO:LB:g=original
=13	=13	=13
*M6/8	*M6/8	*
8.AL	8fL 8a 8cc	f
.	8f 8a 8cc	.
8.CJ	.	.
.	8fJ 8a 8cc	.
8.cL	8fL 8a 8cc	.
.	8f 8a 8cc	.
8.AJ	.	.
.	8aJ 8cc 8ff	.
=14	=14	=14
*M5/8	*M5/8	*
8.ccL	8aL 8ff	.
.	8f 8a 8cc	.
8.cJ	.	.
.	8aJ 8cc 8ff	.
8A	8a 8cc 8ff	.
8D	8r	.
=15	=15	=15
*M6/8	*M6/8	*
8DL	4.d 4.f 4.a	.
8AA 8A	.	.
8CJ	.	.
8GGL 8G	8.cL 8.e 8.b- 8.cc	.
8BB-	.	.
.	8.dJ 8.f 8.b- 8.dd	.
8FFJ 8F	.	.
=16	=16	=16
8AAL	4.e 4.a 4.cc 4.ee	>
8EE 8E	.	.
8GGJ	.	.
8CCL 8C	8eL 8b- 8cc 8ee	f
8FFJ 8F	8fJ 8a 8cc 8ff	.
8GGG-X 8GG-X	8r	.
!!LO:LB:g=original
=17	=17	=17
8.CL	8eL 8b- 8cc	p
.	8e 8b- 8cc	.
8.B-J	.	.
.	8eJ 8b- 8cc	.
8.eL	8eL 8b- 8cc	.
.	8e 8b- 8cc	.
8.CCCJ 8.CC	.	.
.	8eJ 8a 8ee	.
=18	=18	=18
*M5/8	*M5/8	*
8.AL	8eL 8a 8ee	.
.	8e 8a 8cc	.
8.EJ	.	.
.	8eJ 8a 8ee	.
8eL	8eL 8a 8ee	.
8FFFJ 8FF	8eJ 8a 8cc	.
=19	=19	=19
*M6/8	*M6/8	*
8.BBnL	8d#XL 8a 8bn	.
.	8d# 8a 8b	.
8.AJ	.	.
.	8d#J 8a 8b	.
8.d#XL	8d#L 8a 8b	<
.	8d# 8a 8b	.
8.EEJ	.	.
.	8dnJ 8g#X 8dd	.
=20	=20	=20
*M5/8	*M5/8	*
8.BBB-XL 8.BB-X	8dL 8gn 8dd	.
.	8d 8g 8b-X	.
8.GJ	.	.
.	8dJ 8g 8dd	.
8dL	8dL 8g 8dd	.
8BB-J	8dJ 8g 8b-	.
!!LO:LB:g=original
=21	=21	=21
*M6/8	*M6/8	*
8.EE-XL 8.E-X	8gL 8cc#X 8gg	.
.	8g 8cc# 8gg	.
8.BB-J 8.B-	.	.
.	8gJ 8cc# 8gg	.
8.GL 8.g	8gL 8cc# 8gg	.
.	8g 8cc# 8gg	.
8.GGGJ 8.GG	.	.
.	8b-J 8dd 8bb-	.
=22	=22	=22
*M5/8	*M5/8	*
8.DDL 8.D	8b-L 8dd 8bb-	.
.	8g 8dd 8gg	.
8.BB-J 8.B-	.	.
.	8b-J 8dd 8bb-	.
8GL 8g	8b-L 8dd 8bb-	.
8GGJ	8gJ 8dd 8gg	.
=23	=23	=23
*M6/8	*M6/8	*
8.CCL 8.C	8f#XL 8b- 8ee-X 8ff#X	.
.	8f# 8b- 8ee- 8ff#	.
8.BB-J 8.B-	.	.
.	8f#J 8b- 8ee- 8ff#	.
8.F#XL 8.f#X	8f#L 8b- 8ee- 8ff#	.
.	8f# 8b- 8ee- 8ff#	.
8.GGGJ 8.GG	.	.
.	8b-J 8dd 8bb-	.
=24	=24	=24
8.DDL 8.D	8b-L 8dd 8bb-	.
.	8g 8dd 8gg	.
8.BB-J 8.B-	.	.
.	8b-J 8dd 8bb-	.
8.GL 8.g	8b-L 8dd 8bb-	.
.	8g 8dd 8gg	.
8.GGG#XJ 8.GG#X	.	.
.	8b-J 8dd 8bb-	.
!!LO:LB:g=original
=25	=25	=25
8.FFL 8.F	8b-L 8dd 8bb-	.
.	8f 8dd 8ff	.
8.DJ 8.d	.	.
.	8b-J 8dd 8bb-	.
8.B-L 8.b-	8b-L 8dd 8bb-	.
.	8f 8dd 8ff	.
8.AAAJ 8.AA	.	.
.	8aJ 8dd 8aa	.
=26	=26	=26
8.FFL 8.F	8aL 8dd 8aa	.
.	8f 8dd 8ff	.
8.DJ 8.d	.	.
.	8aJ 8dd 8aa	.
4A 4a	8aL 8dd 8aa	.
.	8fJ 8dd 8ff	.
8AAA 8AA	8r	.
=27	=27	=27
8.EL 8.e	8aL 8dd 8gg 8aa	ff
.	8a 8dd 8gg 8aa	.
8.AAJ 8.A	.	.
.	8aJ 8dd 8gg 8aa	.
8.AL 8.a	8aL 8dd 8gg 8aa	.
.	8a 8dd 8gg 8aa	.
8.EJ 8.e	.	.
.	8ddJ 8gg 8aa 8ddd	.
=28	=28	=28
*M5/8	*M5/8	*
8.eL 8.ee	8ddL 8gg 8aa 8ddd	.
.	8a 8dd 8gg 8aa	.
8.AJ 8.a	.	.
.	8ddJ 8gg 8aa 8ddd	.
8EL 8e	8ddL 8gg 8aa 8ddd	.
8AAAJ 8AA	8aJ 8dd 8gg 8aa	.
!!LO:LB:g=original
=29	=29	=29
*M6/8	*M6/8	*
8.GL 8.g	8aL 8cc#X 8ff 8aa	.
.	8a 8cc# 8ff 8aa	.
8.AAJ 8.A	.	.
.	8aJ 8cc# 8ff 8aa	.
8.AL 8.a	8aL 8cc# 8ff 8aa	.
.	8a 8cc# 8ff 8aa	.
8.GJ 8.g	.	.
.	8cc#J 8ff 8aa 8ccc#X	.
*clefG2	*	*
=30	=30	=30
*M5/8	*M5/8	*
8.aL 8.aa	8cc#XL 8ff 8ccc#X	.
.	8a 8cc# 8ff 8aa	.
*clefF4	*	*
8.AJ 8.a	.	.
.	8cc#J 8ff 8aa 8ccc#	.
8GL 8g	8cc#L 8ff 8aa 8ccc#	.
8DDDJ 8DD	8aJ 8cc# 8ff 8aa	.
=31	=31	=31
*M6/8	*M6/8	*
8.FL 8.f	8aL 8dd 8ff 8aa	.
.	8a 8dd 8ff 8aa	.
8.AAJ 8.A	.	.
.	8aJ 8dd 8ff 8aa	.
8.AL 8.a	8aL 8dd 8ff 8aa	.
.	8a 8dd 8ff 8aa	.
8.FJ 8.f	.	.
.	8ddJ 8ff 8aa 8ddd	.
*clefG2	*	*
=32	=32	=32
*M5/8	*M5/8	*
8.aL 8.aa	8ddL 8ff 8ddd	.
.	8a 8dd 8ff 8aa	.
*clefF4	*	*
8.AJ 8.a	.	.
.	8ddJ 8ff 8aa 8ddd	.
8r	4dd 4ff 4aa 4ddd	.
8BB- 8B-	.	.
!!LO:LB:g=original
=33	=33	=33
*M6/8	*M6/8	*
8BB-L 8B-	4.f 4.b- 4.dd 4.ff	fff
8FF 8F	.	.
8AAJ 8A	.	.
8AAL 8A	8.aL 8.cc#X 8.gg 8.aa	.
8EE 8E	.	.
.	8.b-J 8.dd 8.gg 8.bb-	.
8GGJ 8G	.	.
=34	=34	=34
8GGL 8G	8.b-L 8.dd 8.gg 8.bb-	.
8DD 8D	.	.
.	8.ccnJ 8.ff 8.aa 8.cccn	.
8FFJ 8F	.	.
8FFL 8F	8.ccL 8.ff 8.aa 8.ccc	.
8CC 8C	.	.
.	8.cc#XJ 8.gg 8.aa 8.ccc#X	.
8EEJ 8E	.	.
=35	=35	=35
8EEL 8E	4.cc#X 4.gg 4.aa 4.ccc#X	.
8AAA 8AA	.	.
8EEJ 8E	.	.
8AAL 8A	4.cc# 4.aa 4.ccc# 4.aaa	.
8E 8e	.	.
8FJ 8f	.	.
=36	=36	=36
8AAL 8A	[4.dd [4.aa [4.ddd [4.aaa	.
8F 8f	.	.
8AAJ 8A	.	.
8DDL 8D	4dd] 4aa] 4ddd] 4aaa]	.
8DDDJ 8DD	.	.
8D 8A 8d	8f 8a 8dd	.
=37	=37	=37
2.D 2.A 2.d	2.f 2.a 2.dd	.
==	==	==
*-	*-	*-
!!!system-decoration: {(*)}
!!!RDF**dynam: > = dim.
!!!ENC: Bryan Jacob Bell
!!!END: November 2021 to April 2022
!!!PED: Günter Philipp
!!!PTL: Ausgewählte Klavierwerke (Edition Peters)
!!!URL-pdf: https://github.com/bel28kent/Mysterium/blob/main/reference_editions/op11.pdf
